img/026-ketchup.svg

<svg height="480pt" viewBox="-140 0 480 480" width="480pt" xmlns="http://www.w3.org/2000/svg"><path d="m112 144h-48l8-96h32zm0 0" fill="#dedede"/><path d="m8 176h160v296h-160zm0 0" fill="#f05d46"/><g fill="#dedede"><path d="m64 8h48v32h-48zm0 0"/><path d="m144 144v-16c22.089844 0 40-17.910156 40-40s-17.910156-40-40-40h-104v-16h104c30.929688 0 56 25.070312 56 56s-25.070312 56-56 56zm0 0"/><path d="m32 128h112v48h-112zm0 0"/></g><path d="m32 208h16v16h-16zm0 0" fill="#ff8b78"/><path d="m32 240h16v64h-16zm0 0" fill="#ff8b78"/><path d="m8 451.320312v20.679688h160v-236.136719c-36 114.640625-101.800781 179.335938-160 215.457031zm0 0" fill="#e3523b"/><path d="m105.335938 64-1.335938-16h-32l-1.335938 16zm0 0" fill="#ccc"/><path d="m32 128c-4.417969 0-8 3.582031-8 8v40h-16c-4.417969 0-8 3.582031-8 8v288c0 4.417969 3.582031 8 8 8h160c4.417969 0 8-3.582031 8-8v-288c0-4.417969-3.582031-8-8-8h-16v-32.640625c28.871094-4.394531 49.515625-30.242187 47.425781-59.375-2.09375-29.128906-26.222656-51.757813-55.425781-51.984375h-24v-24c0-4.417969-3.582031-8-8-8h-48c-4.417969 0-8 3.582031-8 8v24h-16v16h23.3125l-6.671875 80zm128 336h-144v-272h144zm-120-288v-32h96v32zm144-88c-.027344 22.082031-17.917969 39.972656-40 40h-24.640625l-6.671875-80h31.3125c22.082031.027344 39.972656 17.917969 40 40zm-112-72h32v16h-32zm7.359375 32h17.28125l6.664063 80h-30.609376zm0 0"/><path d="m32 208h16v16h-16zm0 0"/><path d="m32 240h16v64h-16zm0 0"/></svg>

<svg viewBox="-140 0 480 480" xmlns="http://www.w3.org/2000/svg">
  <path d="M112 144H64l8-96h32zm0 0" fill="#dedede"/>
  <path d="M8 176h160v296H8zm0 0" fill="#f05d46"/>
  <g fill="#dedede">
    <path d="M64 8h48v32H64zm0 0"/>
    <path d="M144 144v-16a40 40 0 0 0 0-80H40V32h104a56 56 0 1 1 0 112zm0 0"/>
    <path d="M32 128h112v48H32zm0 0"/>
  </g>
  <path d="M32 208h16v16H32zm0 0" fill="#ff8b78"/>
  <path d="M32 240h16v64H32zm0 0" fill="#ff8b78"/>
  <path d="M8 451.3V472h160V235.9C132 350.5 66.2 415.2 8 451.3zm0 0" fill="#e3523b"/>
  <path d="M105.3 64 104 48H72l-1.3 16zm0 0" fill="#ccc"/>
  <path d="M32 128a8 8 0 0 0-8 8v40H8a8 8 0 0 0-8 8v288a8 8 0 0 0 8 8h160a8 8 0 0 0 8-8V184a8 8 0 0 0-8-8h-16v-32.6A56 56 0 0 0 144 32h-24V8a8 8 0 0 0-8-8H64a8 8 0 0 0-8 8v24H40v16h23.3l-6.7 80zm128 336H16V192h144zM40 176v-32h96v32zm144-88c0 22-18 40-40 40h-24.6l-6.7-80H144c22 0 40 18 40 40zM72 16h32v16H72zm7.4 32h17.2l6.7 80H72.7zm0 0"/>
  <path d="M32 208h16v16H32zm0 0"/>
  <path d="M32 240h16v64H32zm0 0"/>
</svg>
